dist/img/stack/stack-18.svg

<svg width="110" height="110" viewBox="0 0 110 110" fill="none" xmlns="http://www.w3.org/2000/svg">
<g clip-path="url(#clip0_7007_667)">
<rect width="60" height="60" transform="translate(25 25)" fill="#F4F4F4"/>
<path d="M25 55V25H85V85H25" fill="#B7B7BE"/>
<path d="M38.1539 55.1047V57.5497H45.9539V79.7497H51.489V57.5497H59.289V55.1497C59.289 53.7997 59.289 52.7047 59.229 52.6747C59.229 52.6297 54.4739 52.6147 48.699 52.6147L38.199 52.6597V55.1197L38.1539 55.1047ZM73.209 52.5997C74.739 52.9597 75.909 53.6497 76.959 54.7447C77.5139 55.3447 78.339 56.3947 78.399 56.6648C78.399 56.7548 75.8039 58.5097 74.229 59.4848C74.169 59.5297 73.929 59.2748 73.689 58.8847C72.909 57.7747 72.1139 57.2947 70.869 57.2047C69.069 57.0847 67.869 58.0297 67.869 59.6048C67.869 60.0848 67.959 60.3548 68.139 60.7448C68.5439 61.5697 69.2939 62.0648 71.619 63.0848C75.909 64.9297 77.769 66.1448 78.8939 67.8848C80.169 69.8348 80.4539 72.8948 79.599 75.1897C78.639 77.6948 76.299 79.3897 72.9539 79.9448C71.9039 80.1248 69.5039 80.0948 68.379 79.8997C65.979 79.4497 63.6839 78.2497 62.2739 76.7048C61.719 76.1048 60.6539 74.4997 60.7139 74.3948L61.2839 74.0348L63.5339 72.7297L65.229 71.7397L65.619 72.2648C66.1139 73.0448 67.2239 74.0948 67.869 74.4548C69.819 75.4597 72.429 75.3248 73.719 74.1548C74.2739 73.6448 74.5139 73.1048 74.5139 72.3548C74.5139 71.6648 74.409 71.3497 74.0639 70.8248C73.5839 70.1648 72.6239 69.6248 69.9239 68.4248C66.819 67.1048 65.499 66.2648 64.269 64.9748C63.5639 64.1948 62.919 62.9797 62.619 61.9748C62.3939 61.1048 62.319 58.9748 62.529 58.1197C63.1739 55.1197 65.439 53.0197 68.679 52.4197C69.729 52.2097 72.2039 52.2997 73.239 52.5697L73.209 52.5997Z" fill="#F4F4F4"/>
</g>
<defs>
<clipPath id="clip0_7007_667">
<rect width="60" height="60" fill="white" transform="translate(25 25)"/>
</clipPath>
</defs>
</svg>

<svg width="110" height="110" viewBox="0 0 110 110" fill="none" xmlns="http://www.w3.org/2000/svg"><g clip-path="url(#clip0_7007_667)"><path fill="#F4F4F4" d="M25 25h60v60H25z"/><path d="M25 55V25h60v60H25" fill="#B7B7BE"/><path d="M38.154 55.105v2.445h7.8v22.2h5.535v-22.2h7.8v-2.4c0-1.35 0-2.445-.06-2.475 0-.045-4.755-.06-10.53-.06l-10.5.045v2.46l-.045-.015zM73.209 52.6c1.53.36 2.7 1.05 3.75 2.145.555.6 1.38 1.65 1.44 1.92 0 .09-2.595 1.845-4.17 2.82-.06.045-.3-.21-.54-.6-.78-1.11-1.575-1.59-2.82-1.68-1.8-.12-3 .825-3 2.4 0 .48.09.75.27 1.14.405.825 1.155 1.32 3.48 2.34 4.29 1.845 6.15 3.06 7.275 4.8 1.275 1.95 1.56 5.01.705 7.305-.96 2.505-3.3 4.2-6.645 4.755-1.05.18-3.45.15-4.575-.045-2.4-.45-4.695-1.65-6.105-3.195-.555-.6-1.62-2.205-1.56-2.31l.57-.36 2.25-1.305 1.695-.99.39.525c.495.78 1.605 1.83 2.25 2.19 1.95 1.005 4.56.87 5.85-.3.555-.51.795-1.05.795-1.8 0-.69-.105-1.005-.45-1.53-.48-.66-1.44-1.2-4.14-2.4-3.105-1.32-4.425-2.16-5.655-3.45-.705-.78-1.35-1.995-1.65-3-.225-.87-.3-3-.09-3.855.645-3 2.91-5.1 6.15-5.7 1.05-.21 3.525-.12 4.56.15l-.03.03z" fill="#F4F4F4"/></g><defs><clipPath id="clip0_7007_667"><path fill="#fff" transform="translate(25 25)" d="M0 0h60v60H0z"/></clipPath></defs></svg>
